!!!!SEGMENT: pl-wn--mus-2041-4_zelenski-wladyslaw--zaczarowana-krolewna.krn
!!!cenid: 18xx:3652
!!!COM: Żeleński, Władysław
!!!COM-rismid: pe41024455
!!!CDT:
!!!CNT:
!!!OTL: Zaczarowana królewna
!!!PDT:
!!!AGN:
!!!SMS-siglum: PL-Wn
!!!SMS-shelfmark: Mus.2041/4
!!!SMS-shelfwork: W
!!!SMS-variant:
!!!SMS-altvar:
!!!NIFC-rismid:
!!!URL-scan: https://polona.pl/item/zaczarowana-krolewna-el-y,NjU5MjI0NzM/1/#info:metadata
!!!ONB-nifc:
!!!OMD: Andante sustenuto.
!!!AIN: 1 piano 1 vox
!!!key: F
**kern	**kern	**dynam	**kern	**text	**dynam
*part2	*part2	*part2	*part1	*part1	*part1
*staff3	*staff2	*	*staff1	*staff1	*
*I"Fortepian	*I"Fortepian	*	*I"Spiew	*	*
*Ipiano	*Ipiano	*	*Ivox	*	*
*Iklav	*Iklav	*	*ICvox	*	*
*clefF4	*clefG2	*	*clefG2	*	*
*k[b-]	*k[b-]	*	*k[b-]	*	*
*F:	*F:	*	*F:	*	*
*M4/4	*M4/4	*	*M4/4	*	*
*met(c)	*met(c)	*	*met(c)	*	*
=1	=1	=1	=1	=1	=1
*	*^	*	*	*	*
*	*	*^	*	*	*	*
*	*clefF4	*	*	*	*	*	*
!	!	!	!	!LO:DY:b	!	!	!
[2DD-X/	8r	4ryy	2ryy	p	1r	.	.
!	!	!	!	!LO:HP:b	!	!	!
.	(>8GG/L	.	.	<	.	.	.
.	8AA-X/	[<4AA-\	.	.	.	.	.
.	8D-X/J	.	.	.	.	.	.
8DD-/]	8F/L)	8AA-\] 8D-	4ryy	.	.	.	.
8r	(>8G/	8ryy	.	.	.	.	.
(4C-X/	8A-X/	8ryy	&[<4A-\	.	.	.	.
.	[<8d-X/J	8d-\	.	.	.	.	.
=2	=2	=2	=2	=2	=2	=2	=2
4.BB-/	8A-/L)&] 8d-] 8g	4ryy	4ryy	[	1r	.	.
*	*clefG2	*	*	*	*	*	*
!	!	!	!	!LO:HP:b	!	!	!
.	8c/	.	.	<	.	.	.
.	8d-X/	8ryy	&[<4d-\	.	.	.	.
8AA-X/)	[<8f/J	8f\	.	.	.	.	.
8GG/	8d-/&] 8f] 8b-	2ryy	2ryy	.	.	.	.
8r	8r	.	.	.	.	.	.
!	!	!	!	!LO:HP:b	!	!	!
4G\	(>4d-/ 4f 4bn	.	.	>	.	.	.
*	*v	*v	*v	*	*	*	*
=3	=3	=3	=3	=3	=3
8C\L 8G	8c/) 8e 8cc	]	2r	.	.
!	!	!LO:DY:b	!	!	!
8c\	8r	pp	.	.	.
8c\	4r	.	.	.	.
8c\J	.	.	.	.	.
!	!LO:TX:a:t=dolce	!	!	!	!
8c\L	(<4f/ 4a	.	8r	.	.
!	!	!	!LO:TX:a:t=dolce	!	!
8c\	.	.	8a/	Za-	.
8c\	[<4d/ [>4f	.	8b-/	-cza-	.
8c\J	.	.	8a/	-ro-	.
!!LO:LB:g=original
=4	=4	=4	=4	=4	=4
*^	*	*	*	*	*
8c\L	2.ryy	4d/]) 4f]	.	4g/	-wa-	.
8c\	.	.	.	.	.	.
8c\	.	(<4d/ 4f	.	8d/	-na	.
8c\	.	.	.	8a/	kró-	.
8c\	.	4e/) 4g	.	8g/L	-le-	.
8c\J	.	.	.	8f/J	.	.
8c/L	4B-\	(<4e/ 4g	.	8e/	-wna	.
8c/J	.	.	.	8g/	W_mir-	.
=5	=5	=5	=5	=5	=5	=5
!	!	!	!	!	!	!LO:HP:a
8c/L	2A\	4f/) 4cc	.	4.cc\	-to-	<
8c/	.	.	.	.	.	.
!	!	!	!LO:HP:b	!	!	!
8c/	.	(>4f/ 4cc	<	.	.	.
8c/J	.	.	.	8a/	-wym	.
8c/L	8A\	4a\) 4ff	[	4.f/	las-	[
8c/	8r	.	.	.	.	.
8c/	4r	(>4b-\ 4dd	.	.	.	.
8c/J	.	.	.	8g/	-ku	.
*v	*v	*	*	*	*	*
=6	=6	=6	=6	=6	=6
!	!	!	!	!	!LO:HP:a
8c\L	4a\) 4cc	.	2a/	drze-	>
!LO:TX:a:t=poco espress.	!	!	!	!	!
8c\	.	.	.	.	.
8c\	(>4a\ 4aa	.	.	.	.
8c\J	.	.	.	.	.
8c\L	4f\) 4ff	.	8a/	-mie;	]
!	!	!	!	!	!LO:DY:a
8c\	.	.	8a/	U	p
8c\	&[<4d/ [>4dd	.	8b-/	nóg	.
8c\J	.	.	8a/	jej	.
!!LO:LB:g=original
=7	=7	=7	=7	=7	=7
*^	*^	*	*	*	*
!	!	!	!	!	!LO:TX:a:t=espr.	!	!
8c\L	2ryy	(>2.dd/]	4.d\&]	.	(4g/	lu-	.
8c\	.	.	.	.	.	.	.
8c\	.	.	.	.	8d/)	.	.
8c\J	.	.	8f\	.	8a/	-tnia	.
!	!	!	!	!LO:HP:b	!	!	!
8c/L	2B-\	.	4.e\	<	8g/L	spie-	.
!	!	!	!	!	!	!	!LO:HP:a
8c/	.	.	.	.	8f/J	.	<
8c/	.	4cc/)	.	.	8e/	-wna	.
8c/J	.	.	(<8g\	[	8g/	Zsu-	.
*v	*v	*	*	*	*	*	*
=8	=8	=8	=8	=8	=8	=8
8A\L 8c	2.cc/	4f\	.	[2cc\	-nę-	.
8A\ 8c	.	.	.	.	.	.
8A\ 8c	.	4e\	.	.	.	.
8A\J 8c	.	.	.	.	.	.
8A\L 8c	.	4d#X\)	.	8cc\]	.	[
8A\ 8c	.	.	.	8bn\	-ła	.
!	!	!	!LO:HP:b	!	!	!
8A\ 8c	(>4a/	(<4f\	>	8a/	się	.
8A\J 8c	.	.	.	8dd\	na	.
*	*v	*v	*	*	*	*
=9	=9	=9	=9	=9	=9
!	!	!	!	!	!LO:HP:a
8A\L 8c	[<4e/)) [>4cc	.	8cc\L	zie-	>
8A\ 8c	.	.	8bn\J	.	.
8A\ 8c	8e/] 8cc]	]	[4a/	-mię;	.
8A\J 8c	8r	.	.	.	.
8A\L 8Bn 8f	8r	.	8a/]	.	]
!	!	!LO:HP:b:t=cresc. un poco	!	!	!
8A\ 8B 8f	(>8dd\L	<	8r	.	.
8A\ 8B 8f	8a\	.	4r	.	.
8A\J 8B 8f	8bn\J	.	.	.	.
!!LO:PB:g=original
=10	=10	=10	=10	=10	=10
*	*^	*	*	*	*
8A-X\L 8c 8en	8cc\)	2.ryy	.	1r	.	.
8A-\ 8c 8e	8r	.	.	.	.	.
8A-\ 8c 8e	2cc^\	.	.	.	.	.
8A-\J 8c 8e	.	.	.	.	.	.
8G\L 8d-X 8f	.	.	.	.	.	.
8G\ 8d- 8f	.	.	.	.	.	.
8G\ 8d- 8f	8bn/L	8bn\	.	.	.	.
8G\J 8d- 8f	8g/J	8ryy	.	.	.	.
=11	=11	=11	=11	=11	=11	=11
*	*	*^	*	*	*	*
8G\ 8d-X 8f	4ryy	8b-X\L	2.ryy	.	1r	.	.
*	*clefF4	*	*	*	*	*	*
!	!	!	!	!LO:HP:b	!	!	!
8r	.	(8C\	.	<	.	.	.
4r	[<4D-X/	8D-\	.	.	.	.	.
.	.	[<8F\J	.	.	.	.	.
4r	8D-/L]) 8F] 8B-	8ryy	.	[	.	.	.
*	*clefG2	*	*	*	*	*	*
.	(>8G/	4ryy	.	.	.	.	.
(<4C-X^/	8A-X/	.	[<4A-\	.	.	.	.
.	[<8d-X/J	8d-\	.	.	.	.	.
*	*	*v	*v	*	*	*	*
=12	=12	=12	=12	=12	=12	=12
(4.BB-X/)	8A-/L]) 8d-] 8g	4ryy	.	1r	.	.
!	!	!	!LO:HP:b	!	!	!
.	(>8c/	.	<	.	.	.
.	8d-X/	&[<4d-\	.	.	.	.
8AA-X/	[<8f/J	.	.	.	.	.
8GG/)	8d-/&]) 8f] 8b-	2ryy	.	.	.	.
8r	8r	.	.	.	.	.
((4G\	((4d-/ 4f 4bn	.	.	.	.	.
*	*v	*v	*	*	*	*
!!LO:LB:g=original
=13	=13	=13	=13	=13	=13
8C\L)) 8G	8c/)) 8e 8cc	.	2r	.	.
!	!	!LO:DY:b	!	!	!
8c\	8r	pp	.	.	.
8c\	4r	.	.	.	.
8c\J	.	.	.	.	.
8c\L	4f/ 4a	.	8ryy	.	.
!	!	!	!LO:TX:a:t=dolce	!	!
8c\	.	.	8a/	Nie-	.
8c\	[4d/ [4f	.	8b-/	-do-	.
8c\J	.	.	8a/	-kon-	.
=14	=14	=14	=14	=14	=14
*^	*	*	*	*	*
8c\L	2ryy	4d/] 4f]	.	4g/	-czo-	.
8c\	.	.	.	.	.	.
8c\	.	((4d/ 4f	.	8d/	-na	.
8c\J	.	.	.	8a/	pio-	.
8c/L	4r	4e/)) 4g	.	8g/L	-snecz-	.
8c/	.	.	.	8f/J	.	.
8c/	(4B-\	((4e/ 4g	.	8e/	-ka,	.
8c/J	.	.	.	8g/	U-	.
=15	=15	=15	=15	=15	=15	=15
!	!	!	!	!	!	!LO:HP:a
8c/L	[2A\)	4f/)) 4cc	.	4.cc\	-smie-	<
8c/	.	.	.	.	.	.
!	!	!	!LO:HP:b	!	!	!
8c/	.	(>(<4f/ 4cc	<	.	.	.
8c/J	.	.	.	8a/	-chem	.
8c/L	8A\]	4a\)) 4ff	[	4.f/	lśni	[
8c/	8r	.	.	.	.	.
8c/	4r	(>4b-\ 4dd	.	.	.	.
8c/J	.	.	.	8g/	na	.
*v	*v	*	*	*	*	*
!!LO:LB:g=original
=16	=16	=16	=16	=16	=16
!	!	!	!	!	!LO:HP:a
8c\L	4a\) 4cc	.	2a/	twa-	>
8c\	.	.	.	.	.
!	!LO:TX:b:t=poco espress.	!	!	!	!
8c\	(>4a\ 4aa	.	.	.	.
8c\J	.	.	.	.	.
8c\L	4f\) 4ff	.	4a/	-rzy,	]
8c\	.	.	.	.	.
8c\	[4e-X/ [4ee-X	.	8r	.	.
8c\J	.	.	8a/	Drżą	.
=17	=17	=17	=17	=17	=17
*	*^	*	*	*	*
!	!	!	!	!LO:TX:a:t=espr.	!	!
8c\L	4e-/] 4ee-]	2.ryy	.	4.ee-X\	jesz-	.
8c\	.	.	.	.	.	.
!	!	!	!LO:HP:b	!	!	!
8G\ 8c	2e-X/ 2b- 2ee-X	.	<	.	.	.
8G\J 8c	.	.	.	8b-\	-cze	.
8F#X\L 8c	.	.	.	4.b-\	jej	.
8F#\ 8c	.	.	.	.	.	.
8F#\ 8c	4d/ 4dd	(<8b-\L	[	.	.	.
8F#\J 8c	.	8a\J)	.	8a/	u-	.
=18	=18	=18	=18	=18	=18	=18
8G\L 8B-	[<2d/ [>2dd	&(<4a\	.	4dd\	-stecz-	.
8G\ 8B-	.	.	.	.	.	.
8G\ 8B-	.	[4g\&)	.	4g/	-ka,	.
8G\J 8B-	.	.	.	.	.	.
8E\L 8B-	8d/L] 8g] 8dd]	2ryy	.	2r	.	.
8E\ 8B-	(<8g/	.	.	.	.	.
8C#X\ 8G 8A	8f/	.	.	.	.	.
8C#\J 8G 8A	8e/J	.	.	.	.	.
*	*v	*v	*	*	*	*
!!LO:LB:g=original
=19	=19	=19	=19	=19	=19
8D\L 8F 8A	8f/)	.	8r	.	.
!	!	!	!	!	!LO:DY:a
8D\ 8F 8A	8r	.	8f/	O	p
!	!	!LO:HP:b	!	!	!LO:HP:a
8D\ 8F 8A	(>4c/	<	8a/	czemś	<
8D\J 8F 8A	.	.	8cc\	roz-	.
8GG/L 8D 8G	[4Bn/	.	4.ee\	-ko-	[
8GG/ 8D 8G	.	.	.	.	.
!	!	!	!	!	!LO:HP:a
8GG/ 8D 8G	(4B/]) [>4f	[	.	.	>
8GG/J 8D 8G	.	.	8dd\	-sznem	]]
=20	=20	=20	=20	=20	=20
*	*^	*	*	*	*
*	*	*^	*	*	*	*
!	!	!	!	!LO:HP:b:t=dim.	!	!	!
8C\ 8G	8c/L) 8f]	2ryy	2.ryy	>	2cc\	ma-	.
8r	(>8C</	.	.	.	.	.	.
[<2.CC\	8D</	.	.	.	.	.	.
.	8F</J	.	.	.	.	.	.
.	8Bn</L)	8ryy	.	.	4g/	-rzy	.
.	(>8d/	4.d\	.	>	.	.	.
.	8f/	.	4f\	.	4r	.	.
.	8a/J	.	.	.	.	.	.
*	*v	*v	*v	*	*	*	*
=21	=21	=21	=21	=21	=21
8CC/]	8e:\) 8g: 8cc:	]	1r	.	.
8r	8r	.	.	.	.
!	!	!LO:DY:b=2:t=poco sfz	!	!	!
[4c:\ [4g:	[<4cc:\ [<4ee: [>4gg: [>4ccc:	sf	.	.	.
!LO:TUP:problem=brak klamry	!LO:TUP:problem=klamra łukowa	!	!	!	!
6c\] 6g]	6cc\] 6ee] 6gg] 6ccc]	.	.	.	.
12C/	12c/	p	.	.	.
!LO:TUP:problem=brak klamry	!LO:TUP:problem=klamra łukowa	!	!	!	!
6C/	6c/	.	.	.	.
12C/	12c/	.	.	.	.
!!LO:PB:g=original
=22||	=22||	=22||	=22||	=22||	=22||
*k[b-e-a-d-]	*k[b-e-a-d-]	*	*k[b-e-a-d-]	*	*
*M6/8	*M6/8	*	*M6/8	*	*
!	!	!LO:HP:b	!LO:TX:a:t=Quasi Allegretto	!	!
4C/	4c/	<	2.r	.	.
8C/	8c/	.	.	.	.
4C/	4c/	.	.	.	.
8C/	8c/	[[	.	.	.
=23	=23	=23	=23	=23	=23
4C/	4c/	.	4r	.	.
8C/	8c/	.	8r	.	.
4C/	4c/	.	[4.cc^\	Ma-	.
8C/	8c/	.	.	.	.
=24	=24	=24	=24	=24	=24
.	(<16qqc/LL	.	.	.	.
.	16qqB-/JJ	.	.	.	.
4AA-/ 4E-	4A-^/) 4e-	.	8cc\]	.	.
!	!	!	!LO:TX:a:t=poco marc.	!	!
.	.	.	8b-\	-rzy	.
!	!LO:TX:b:t=poco marc.	!	!	!	!
8AA-/ 8E-	8c/ 8e-	.	8cc\	o	.
4AA-/ 4E-	4c/ 4e-	.	8a-/	jed-	.
.	.	.	8g/	-num	.
8AA-/ 8E-	8c/ 8en	.	8a-/	z_ry-	.
=25	=25	=25	=25	=25	=25
4AA-/ 4E-	4c/ 4f	.	4.f/	-ce-	.
8AA-/ 8E-	8e-X/ 8f	.	.	.	.
4AA-/ 4E-	4d-/ 4f	.	4a-/	-rzy,	.
8AA-/ 8E-	8B-/ 8g	.	8b-\	Że	.
!!LO:LB:g=original
=26	=26	=26	=26	=26	=26
4AA-/ 4E-	4c/ 4a-	.	4cc\	i-	.
8AA-/ 8E-	8c/ 8a-	.	8cc\	-dąc	.
4AA-/ 4E-	4c/ 4a-	.	4ee-\	przez	.
8AA-/ 8E-	8c-X/ 8e-	.	8a-/	od-	.
=27	=27	=27	=27	=27	=27
!	!	!LO:HP:b:t=cresc. un poco	!	!	!LO:HP:a:t=cresc. un poco
4GG/ 4E-	4B-/ 4b-	<	4.b-\	-mę-	<
8GG/ 8E-	8B-/ 8e-	.	.	.	.
4GG/ 4E-	4B-/ 4e-	.	4b-\	-ty,	.
8AAn/ 8G-X	8c/ 8e-	.	8cc\	Do	.
=28	=28	=28	=28	=28	=28
4BB-/ 4F	4B-/ 4d-	.	4.dd-\	stóp	.
8BB-/ 8F	8B-/ 8d-	.	.	.	.
4GG/ 4En	4B-/ 4c	.	8cc\	jej	.
.	.	.	8b-\	tu	.
8GG/ 8E	8B-/ 8c	.	8cc\	przy-	.
=29	=29	=29	=29	=29	=29
4AA-/ 4En	4A-/ 4c	.	4.a-/	-bie-	.
8AA-/ 8E	8A-/ 8c	.	.	.	.
4AA-/ 4F	4A-/ 4c	.	4a-/	-ży,	.
8AA-/ 8F	8A-/ 8c	.	8g/	I	.
!!LO:LB:g=original
=30	=30	=30	=30	=30	=30
4BB-/ 4F	4A-/ 4c	.	4f/	przer-	.
8BB-/ 8F	8A-/ 8e-	.	8cc\	-wie	.
4BB-/ 4F	4A-/ 4e-	.	4g/	sen	.
8BB-/ 8F	8A-/ 8dn	.	8a-/	za-	.
=31	=31	=31	=31	=31	=31
*	*^	*	*	*	*
4EE-/ 4E-	(>[>4.d-/ 4.f	(<8.A-\L	<	4.b-\	-klę-	.
.	.	16F\K	.	.	.	.
8EE-/ 8E-	.	8A-\J	.	.	.	.
4EE-/ 4E-	4G/)) 4d-] 4e-	8ryy	[	4e-/	-ty.	.
.	.	4ryy	.	.	.	.
8EE-/ 8E-	((8e-/ 8g	.	.	8r	.	.
*	*v	*v	*	*	*	*
=32	=32	=32	=32	=32	=32
4EE-/ 4E-	4d-/)) 4b-	.	4r	.	.
8EE-/ 8E-	8d-/ 8e-	.	8r	.	.
4EE-/ 4E-	4d-/ 4e-	.	4.e-/	Lecz	.
8EE-/ 8E-	8d-/ 8e-	.	.	.	.
=33	=33	=33	=33	=33	=33
.	(16qqc/LL	.	.	.	.
.	16qqB-/JJ	.	.	.	.
4AA-/ 4E-	4A-^/) 4e-	.	8cc\	ry-	.
.	.	.	8b-\	-cerz	.
8AA-/ 8E-	8c/ 8e-	.	8cc\	co	.
4AA-/ 4E-	4c/ 4e-	.	4a-/	wal-	.
8AA-/ 8E-	8c/ 8en	.	8g/	-czył	.
!!LO:LB:g=original
=34	=34	=34	=34	=34	=34
4AA-/ 4E-	4c/ 4g	.	4.f/	dla	.
8AA-/ 8E-	8e-/ 8f	.	.	.	.
4AA-/ 4E-	4d-/ 4f	.	4a-/	niej,	.
8AA-/ 8E-	8B-/ 8g	.	8b-\	Ten	.
=35	=35	=35	=35	=35	=35
4AA-/ 4E-	4c/ 4a-	.	4cc\	męz-	.
8AA-/ 8E-	8c/ 8a-	.	8cc\	-two	.
4GG-X/ 4E-	4c/ 4a-	.	4ee-\	swe	.
8GG-/ 8E-	8c/ 8a-	.	8a-/	prze-	.
=36	=36	=36	=36	=36	=36
4FF-X/ 4F-X	4d-/ 4g-X 4b-	.	4.b-\	-ce-	.
8FF-/ 8F-	8G-/ 8d- 8g-	.	.	.	.
4FF-/ 4F-	4G-/ 4d- 4g-	.	4b-\	-niał	.
8FF-/ 8F-	8G-/ 8d- 8g-	.	8b-\	Za-	.
=37	=37	=37	=37	=37	=37
*tremolo	*tremolo	*	*	*	*
!	!	!LO:HP:b:t=cresc. e stringendo	!	!	!LO:HP:a:t=cresc. e stringendo
32EE-/LLL	32c-X/LLL 32g-X	<	4cc-X\	-błą-	<
32C-X/	32G-X/	.	.	.	.
32EE-/	32c-/ 32g-	.	.	.	.
32C-X/	32G-X/	.	.	.	.
32EE-/	32c-/ 32g-	.	.	.	.
32C-X/	32G-X/	.	.	.	.
32EE-/	32c-/ 32g-	.	.	.	.
32C-X/	32G-X/	.	.	.	.
32EE-/	32c-/ 32g-	.	8cc-\	-kał	.
32C-X/	32G-X/	.	.	.	.
32EE-/	32c-/ 32g-	.	.	.	.
32C-X/JJJ	32G-X/JJJ	.	.	.	.
32EE-/LLL	32c-/LLL 32gn	.	4gn/	się	.
32C-/	32GnX/	.	.	.	.
32EE-/	32c-/ 32g	.	.	.	.
32C-/	32GnX/	.	.	.	.
32EE-/	32c-/ 32g	.	.	.	.
32C-/	32GnX/	.	.	.	.
32EE-/	32c-/ 32g	.	.	.	.
32C-/	32GnX/	.	.	.	.
32EE-/	32c-/ 32g	.	8g/	w_ot-	.
32C-/	32GnX/	.	.	.	.
32EE-/	32c-/ 32g	.	.	.	.
32C-/JJJ	32GnX/JJJ	.	.	.	.
!!LO:PB:g=original
=38	=38	=38	=38	=38	=38
32FF-X/LLL	32c-X/LLL 32a-	.	4.a-/	-chła-	.
32C/	32A-/	.	.	.	.
32FF-/	32c-/ 32a-	.	.	.	.
32C/	32A-/	.	.	.	.
32FF-/	32c-/ 32a-	.	.	.	.
32C/	32A-/	.	.	.	.
32FF-/	32c-/ 32a-	.	.	.	.
32C/	32A-/	.	.	.	.
32FF-/	32c-/ 32a-	.	.	.	.
32C/	32A-/	.	.	.	.
32FF-/	32c-/ 32a-	.	.	.	.
32C/JJJ	32A-/JJJ	.	.	.	.
32EE--/LLL	32cn/LLL 32g 32a-	.	4a-/	-ni,	.
32AA-/	32A-/	.	.	.	.
32EE--/	32c/ 32g 32a-	.	.	.	.
32AA-/	32A-/	.	.	.	.
32EE--/	32c/ 32g 32a-	.	.	.	.
32AA-/	32A-/	.	.	.	.
32EE--/	32c/ 32g 32a-	.	.	.	.
32AA-/	32A-/	.	.	.	.
32EE--/	32c/ 32g 32a-	.	8ccn\	Za-	.
32AA-/	32A-/	.	.	.	.
32EE--/	32c/ 32g 32a-	.	.	.	.
32AA-/JJJ	32A-/JJJ	.	.	.	.
=39	=39	=39	=39	=39	=39
32DD-/LLL	32d-/LLL 32f 32a-	.	4dd-\	-błą-	.
32AA-/	32A-/	.	.	.	.
32DD-/	32d-/ 32f 32a-	.	.	.	.
32AA-/	32A-/	.	.	.	.
32DD-/	32d-/ 32f 32a-	.	.	.	.
32AA-/	32A-/	.	.	.	.
32DD-/	32d-/ 32f 32a-	.	.	.	.
32AA-/	32A-/	.	.	.	.
32DD-/	32d-/ 32f 32a-	.	8dd-\	-kał	.
32AA-/	32A-/	.	.	.	.
32DD-/	32d-/ 32f 32a-	.	.	.	.
32AA-/JJJ	32A-/JJJ	.	.	.	.
32CC-X/LLL	32e-/LLL 32an	.	4an/	się	.
32C-X/	32An/	.	.	.	.
32CC-/	32e-/ 32a	.	.	.	.
32C-X/	32An/	.	.	.	.
32CC-/	32e-/ 32a	.	.	.	.
32C-X/	32An/	.	.	.	.
32CC-/	32e-/ 32a	.	.	.	.
32C-X/	32An/	.	.	.	.
32CC-/	32e-/ 32a	.	8a/	w_ot-	.
32C-X/	32An/	.	.	.	.
32CC-/	32e-/ 32a	.	.	.	.
32C-X/JJJ	32An/JJJ	.	.	.	.
*Xtremolo	*	*	*	*	*
=40	=40	=40	=40	=40	=40
!	!	!LO:HP:b	!	!	!
16%3BBB-/L 16%3BB-	32dn/LLL 32b-	<	4.b-\	-chła-	.
.	32B-/	.	.	.	.
.	32d/ 32b-	.	.	.	.
.	32B-/	.	.	.	.
.	32d/ 32b-	.	.	.	.
.	32B-/	.	.	.	.
16%3AAA-/ 16%3AA-	32d/ 32b-	.	.	.	.
.	32B-/	.	.	.	.
.	32d/ 32b-	.	.	.	.
.	32B-/	.	.	.	.
.	32d/ 32b-	.	.	.	.
.	32B-/	.	.	.	.
16%3GGG-X/ 16%3GG-X	32d/ 32b-	.	4b-\	-ni	.
.	32B-/	.	.	.	.
.	32d/ 32b-	.	.	.	.
.	32B-/	.	.	.	.
.	32d/ 32b-	.	.	.	.
.	32B-/	.	.	.	.
16%3FFF/J 16%3FF	32d/ 32b-	.	.	.	.
.	32B-/	.	.	.	.
.	32d/ 32b-	.	8b-\	I	.
.	32B-/	.	.	.	.
.	32d/ 32b-	.	.	.	.
.	32B-/JJJ	[[	.	.	.
*	*Xtremolo	*	*	*	*
=41	=41	=41	=41	=41	=41
*	*^	*	*	*	*
*tremolo	*	*	*	*	*	*
!	!	!	!LO:DY:b	!LO:TX:a:t=Grave e sosten.	!	!LO:DY:a
32EEE-/LLL	4c-X/ 4e- 4gn 4cc-X	4.ryy	ff	4.ee-\	zwąt-	f
32EE-/	.	.	.	.	.	.
32EEE-/	.	.	.	.	.	.
32EE-/	.	.	.	.	.	.
32EEE-/	.	.	.	.	.	.
32EE-/	.	.	.	.	.	.
32EEE-/	.	.	.	.	.	.
32EE-/	.	.	.	.	.	.
32EEE-/	8r	.	.	.	.	.
32EE-/	.	.	.	.	.	.
32EEE-/	.	.	.	.	.	.
32EE-/	.	.	.	.	.	.
*	*clefF4	*	*	*	*	*
!	!LO:TX:t=P:problem=brak początku łuku	!LO:TX:t=P:problem=brak początku łuku	!	!	!	!
32EEE-/	[>4.E-/	4E-\	.	4e-/	-pił	.
32EE-/	.	.	.	.	.	.
32EEE-/	.	.	.	.	.	.
32EE-/	.	.	.	.	.	.
32EEE-/	.	.	.	.	.	.
32EE-/	.	.	.	.	.	.
32EEE-/	.	.	.	.	.	.
32EE-/	.	.	.	.	.	.
32EEE-/	.	(<8D-\	.	8r	.	.
32EE-/	.	.	.	.	.	.
32EEE-/	.	.	.	.	.	.
32EE-/JJJ	.	.	.	.	.	.
!!LO:LB:g=original
=42	=42	=42	=42	=42	=42	=42
!LO:SIC:v:s=32EEE-/LLL	!	!	!	!	!	!
32GGG/LLL	2.E-/]	8.C-X\L)	.	4r	.	.
32EE-/	.	.	.	.	.	.
!LO:SIC:v:s=32EEE-/	!	!	!	!	!	!
32GGG/	.	.	.	.	.	.
32EE-/	.	.	.	.	.	.
!LO:SIC:v:s=32EEE-/	!	!	!	!	!	!
32GGG/	.	.	.	.	.	.
32EE-/	.	.	.	.	.	.
!LO:SIC:v:s=32EEE-/	!	!	!	!	!	!
32GGG/	.	(<16BB-\K	.	.	.	.
32EE-/	.	.	.	.	.	.
!LO:SIC:v:s=32EEE-/	!	!	!	!	!	!
32GGG/	.	8AA-\J	.	8r	.	.
32EE-/	.	.	.	.	.	.
!LO:SIC:v:s=32EEE-/	!	!	!	!	!	!
32GGG/	.	.	.	.	.	.
32EE-/	.	.	.	.	.	.
!LO:SIC:v:s=32EEE-/	!	!	!LO:HP:b	!	!	!
32GGG/	.	8GG\L	>	4e-/	i	.
32EE-/	.	.	.	.	.	.
!LO:SIC:v:s=32EEE-/	!	!	!	!	!	!
32GGG/	.	.	.	.	.	.
32EE-/	.	.	.	.	.	.
!LO:SIC:v:s=32EEE-/	!	!	!	!	!	!
32GGG/	.	8AA-\	.	.	.	.
32EE-/	.	.	.	.	.	.
!LO:SIC:v:s=32EEE-/	!	!	!	!	!	!
32GGG/	.	.	.	.	.	.
32EE-/	.	.	.	.	.	.
!LO:SIC:v:s=32EEE-/	!	!	!	!	!	!
32GGG/	.	8BB-\J	.	8e-/	ska-	.
32EE-/	.	.	.	.	.	.
!LO:SIC:v:s=32EEE-/	!	!	!	!	!	!
32GGG/	.	.	.	.	.	.
32EE-/JJJ	.	.	]	.	.	.
*	*v	*v	*	*	*	*
=43	=43	=43	=43	=43	=43
!LO:SIC:v:s=32DDDn/LLL	!	!LO:HP:b:t=dim.	!	!	!LO:HP:a
32FFFn/LLL	[<2.AA-/) [>2.F-X	>	4.cc-X\	-mie-	>
32DDn/	.	.	.	.	.
!LO:SIC:v:s=32DDDn/	!	!	!	!	!
32FFF/	.	.	.	.	.
32DDn/	.	.	.	.	.
!LO:SIC:v:s=32DDDn/	!	!	!	!	!
32FFF/	.	.	.	.	.
32DDn/	.	.	.	.	.
!LO:SIC:v:s=32DDDn/	!	!	!	!	!
32FFF/	.	.	.	.	.
32DDn/	.	.	.	.	.
!LO:SIC:v:s=32DDDn/	!	!	!	!	!
32FFF/	.	.	.	.	.
32DDn/	.	.	.	.	.
!LO:SIC:v:s=32DDDn/	!	!	!	!	!
32FFF/	.	.	.	.	.
32DDn/	.	.	.	.	.
!LO:SIC:v:s=32DDDn/	!	!	!	!	!
32FFF/	.	.	[4.f-X/	-niał	]]
32DDn/	.	.	.	.	.
!LO:SIC:v:s=32DDDn/	!	!	!	!	!
32FFF/	.	.	.	.	.
32DDn/	.	.	.	.	.
!LO:SIC:v:s=32DDDn/	!	!	!	!	!
32FFF/	.	.	.	.	.
32DDn/	.	.	.	.	.
!LO:SIC:v:s=32DDDn/	!	!	!	!	!
32FFF/	.	.	.	.	.
32DDn/	.	.	.	.	.
!LO:SIC:v:s=32DDDn/	!	!	!	!	!
32FFF/	.	.	.	.	.
32DDn/	.	.	.	.	.
!LO:SIC:v:s=32DDDn/	!	!	!	!	!
32FFF/	.	.	.	.	.
32DDn/JJJ	.	.	.	.	.
*Xtremolo	*	*	*	*	*
=44	=44	=44	=44	=44	=44
4DDDn/ 4DDn	4AA-/] 4F-]	.	4.f-/_	.	.
8r	8r	.	.	.	.
!	!	!LO:HP:b	!	!	!
(<4.DD/	(>[<4.AA-/ 4.F-X	<	8f-/]	.	.
.	.	.	8r	.	.
.	.	.	8r	.	.
=45||	=45||	=45||	=45||	=45||	=45||
*M4/4	*M4/4	*	*M4/4	*	*
*met(c)	*met(c)	*	*met(c)	*	*
*	*^	*	*	*	*
!	!	!	!	!LO:TX:a:i:t=Tempo I.	!	!
2.DD-X/)	8AA-/L]) 8Fn	4ryy	[	1r	.	.
.	8GG/	.	.	.	.	.
.	8AA-/	[4AA-\	.	.	.	.
.	[<8D-/J	.	.	.	.	.
.	8AA-/L] 8D-] 8F	4ryy	.	.	.	.
*	*clefG2	*	*	*	*	*
.	(>8G/	.	.	.	.	.
(<4C-X/	8A-/	[<4A-\	.	.	.	.
.	8d-X/J	.	.	.	.	.
!!LO:LB:g=original
=46	=46	=46	=46	=46	=46	=46
!	!	!	!LO:HP:b	!	!	!
4.BB-/)	8A-/L]) 8c 8g	4ryy	<	1r	.	.
.	(8c/	.	.	.	.	.
.	8d-/	[<4d-\	.	.	.	.
8AA-/	[<8f/J	.	[	.	.	.
4GG/	8d-/]) 8f] 8b-	2ryy	.	.	.	.
.	8r	.	.	.	.	.
4G\	(>(<4d-/ 4f 4bn	.	.	.	.	.
*	*v	*v	*	*	*	*
=47	=47	=47	=47	=47	=47
8C\L 8G	8c/)) 8en 8cc	.	1r	.	.
!	!	!LO:DY:b	!	!	!
8c\	8r	pp	.	.	.
8c\	4r	.	.	.	.
8c\J	.	.	.	.	.
8c\L	2r	.	.	.	.
8c\	.	.	.	.	.
8c\	.	.	.	.	.
8c\J	.	.	.	.	.
=48	=48	=48	=48	=48	=48
8c\L	4r	.	2r	.	.
8c\	.	.	.	.	.
!	!LO:TX:b:t=dolce	!	!	!	!
8c\	(4an\ 4aan	.	.	.	.
8c\J	.	.	.	.	.
8c\L	4f\) 4ff	.	8r	.	.
!	!	!	!LO:TX:a:t=dolce	!	!
8c\	.	.	8an/	Za-	.
!	!LO:SIC:v:n=2:s=((4dn/	!	!	!	!
8c\	(4d-/ &[>4ddn	.	8b-/	-cza-	.
8c\J	.	.	8a/	-ro-	.
=49	=49	=49	=49	=49	=49
*^	*^	*	*	*	*
!	!	!	!LO:SIC:v:s=4.dn\	!	!	!	!
8c\L	2ryy	2.ddn/&])	4.d-\	.	4g/	-wa-	.
8c\	.	.	.	.	.	.	.
8c\	.	.	.	.	8dn/	-na	.
8c\J	.	.	(<8f\	.	8an/	kró-	.
8c/L	(<2B-\	.	4.en\)	.	8g/L	-le-	.
8c/	.	.	.	.	8f/J	.	.
8c/	.	(>4cc/	.	.	8en/	-wna	.
8c/J	.	.	&(<8g\	.	8g/	w_mir	.
*v	*v	*	*	*	*	*	*
!!LO:PB:g=original
=50	=50	=50	=50	=50	=50	=50
*	*	*^	*	*	*	*
!	!	!	!	!	!	!	!LO:DY:a
8An\L) 8c	8f/&) 8cc	2r)yy	2ryy	.	4.cc\	-to-	<
8A\ 8c	(4cc\	.	.	.	.	.	.
8A\ 8c	.	.	.	.	.	.	.
!	!	!	!	!LO:HP:b	!	!	!
8G\J 8c	8b-\	.	.	<	8cc\	-wym	.
8F\L 8c	8a-X/L)	8ryy	4ryy	.	4.cc\	las-	.
8F\	(8d-X/	&[4.d-X\	.	.	.	.	.
8F\	8f/	.	[<4f\	.	.	.	.
8F\J	8g/J	.	.	[	8b-\	-ku	[[
=51	=51	=51	=51	=51	=51	=51	=51
!	!LO:TX:b:t=poco espr.	!	!	!	!	!	!
8F\L	8d-/&]) 8f] 8a-	8ryy	2ryy	.	(4.a-X/	drze-	.
8F\	8r	(<4c\	.	.	.	.	.
8F\	(>4en/	.	.	.	.	.	.
8F\J	.	8B-\	.	.	8g/)	.	.
!	!	!	!	!	!	!	!LO:DY:a
8F/L	8A-X/L)) 8f	8ryy	4ryy	.	2f/	-mie.	>]
*	*clefF4	*	*	*	*	*	*
8FF/	(>8D-X/	[4.D-X\	.	.	.	.	.
8FF/	8F/	.	[<4F\	.	.	.	.
8FF/J	8G/J	.	.	.	.	.	.
*	*v	*v	*v	*	*	*	*
=52	=52	=52	=52	=52	=52
8FF/L	4D-\]) 4F] 4A-	.	4f/	.	.
8FFF/ 8FF	.	.	.	.	.
!	!	!LO:HP:b:t=dimin.	!	!	!
8FFF/ 8FF	(>4D-X\	>	4r	.	.
8FFF/J 8FF	.	.	.	.	.
8FFF/L 8FF	4C/)	.	2r	.	.
8FFF/ 8FF	.	.	.	.	.
8FFF/ 8FF	(>4BBn\ [<4F [<4A- 4Bn	.	.	.	.
8FFF/J 8FF	.	.	.	.	.
=53	=53	=53	=53	=53	=53
*	*^	*	*	*	*
8FFF/L 8FF	2.F/] 2.A-]	4D-\ 4d-	.	1r	.	.
8FFF/ 8FF	.	.	.	.	.	.
8FFF/ 8FF	.	2C\) 2c	.	.	.	.
8FFF/J 8FF	.	.	.	.	.	.
4FFF/ 4FF	.	.	.	.	.	.
4FFF/ 4FF	4ryy	4C\ 4F 4A- 4c	.	.	.	.
*	*v	*v	*	*	*	*
=54	=54	=54	=54	=54	=54
1FFF;< 1FF	1C;> 1F 1A- 1c	.	1r;	.	.
==	==	==	==	==	==
*-	*-	*-	*-	*-	*-
!!!system-decoration: s1{(s2,s3)}
!!!RDF**kern: < = below
!!!RDF**kern: > = above
!!!ENC: Andrzej Gręziak
!!!END: 2022-02-16
!!!ENC: Marta Chmielewska
!!!END: 2022-02-16
